img/icon8.svg

<svg width="76" height="63" viewBox="0 0 76 63" fill="none" xmlns="http://www.w3.org/2000/svg">
<rect width="76" height="63" fill="white"/>
<path d="M26.6707 26.976H26.5747L25.2787 29.64L21.8467 35.976L18.4147 29.64L17.1187 26.976H17.0227V39H14.0227V22.248H17.5987L21.8947 30.432H21.9907L26.2387 22.248H29.6707V39H26.6707V26.976ZM40.1204 39.288C39.0164 39.288 38.0164 39.112 37.1204 38.76C36.2404 38.392 35.4804 37.848 34.8404 37.128C34.2164 36.408 33.7364 35.52 33.4004 34.464C33.0644 33.392 32.8964 32.152 32.8964 30.744C32.8964 29.336 33.0644 28.088 33.4004 27C33.7364 25.896 34.2164 24.976 34.8404 24.24C35.4804 23.488 36.2404 22.92 37.1204 22.536C38.0164 22.152 39.0164 21.96 40.1204 21.96C41.6244 21.96 42.8724 22.28 43.8644 22.92C44.8564 23.56 45.6484 24.528 46.2404 25.824L43.5284 27.264C43.2884 26.512 42.8964 25.912 42.3524 25.464C41.8084 25 41.0644 24.768 40.1204 24.768C38.9364 24.768 37.9924 25.168 37.2884 25.968C36.6004 26.768 36.2564 27.888 36.2564 29.328V31.968C36.2564 33.424 36.6004 34.544 37.2884 35.328C37.9924 36.096 38.9364 36.48 40.1204 36.48C41.0644 36.48 41.8324 36.224 42.4244 35.712C43.0324 35.2 43.4724 34.568 43.7444 33.816L46.3124 35.328C45.7044 36.576 44.8964 37.552 43.8884 38.256C42.8804 38.944 41.6244 39.288 40.1204 39.288ZM49.0149 22.248H61.9749V39H58.8069V25.056H52.1829V39H49.0149V22.248Z" fill="#000105"/>
<rect x="1" y="1" width="74" height="61" stroke="black" stroke-width="2"/>
</svg>

<svg width="76" height="63" fill="none" xmlns="http://www.w3.org/2000/svg"><path fill="#fff" d="M0 0h76v63H0z"/><path d="M26.67 26.976h-.095l-1.296 2.664-3.432 6.336-3.432-6.336-1.296-2.664h-.096V39h-3V22.248h3.576l4.296 8.184h.096l4.248-8.184h3.432V39h-3V26.976zm13.45 12.312c-1.104 0-2.104-.176-3-.528a6.233 6.233 0 01-2.28-1.632c-.624-.72-1.104-1.608-1.44-2.664-.336-1.072-.504-2.312-.504-3.72 0-1.408.168-2.656.504-3.744.336-1.104.816-2.024 1.44-2.76.64-.752 1.4-1.32 2.28-1.704.896-.384 1.896-.576 3-.576 1.504 0 2.752.32 3.744.96.992.64 1.784 1.608 2.376 2.904l-2.712 1.44c-.24-.752-.632-1.352-1.176-1.8-.544-.464-1.288-.696-2.232-.696-1.184 0-2.128.4-2.832 1.2-.688.8-1.032 1.92-1.032 3.36v2.64c0 1.456.344 2.576 1.032 3.36.704.768 1.648 1.152 2.832 1.152.944 0 1.712-.256 2.304-.768a4.386 4.386 0 001.32-1.896l2.568 1.512c-.608 1.248-1.416 2.224-2.424 2.928-1.008.688-2.264 1.032-3.768 1.032zm8.895-17.04h12.96V39h-3.168V25.056h-6.624V39h-3.168V22.248z" fill="#000105"/><path stroke="#000" stroke-width="2" d="M1 1h74v61H1z"/></svg>
